X:104
T:Seventh Bullet. GS.104
M:2/4
L:1/16
Q:1/4=100
S:George Spencer m/s, Leeds,1831
R:.Air
O:England
A:Leeds
H:1831
Z:vmp.Cherri Graebe
K:G major
d4 (^cde)c | f4 (fgag) | b4 (agf)e | e2d2 z4 | A2B2c2^c2 |!
d2g2 (fed)c | B2d2 (BcBA) | â€œcrâ€ HG6 ||!
D2 | G2G2 B2B2 | ^c2d2 z2 d2 | b2 ag (fgd)B |!
(edcA) G2D2 | G2G2B2B2 | ^c2d2 z2 d2 | ^c2g2d2c2 | d6 Bc |]

